X: 2
T: Da Scallowa Lasses
R: Reel
M: 4/4
L: 1/8
K: Ador
|:eaag eged|c2 ec gcec|eaag eged|cABG A4:|
|:BE E2 c2 cA|dcde gfed|eaag eged|cABG A4:|
